X: 25
T:Highland Cathedral
M:4/4
L:1/16
K:C
F6 GA G2F2 C2F2 |  G6 A2 A8 | A6 _Bc B2A2  G2F2 | 
G6 A2 C8 |  D6 EF F2C2 F2A2 | c6 _B2 A8 | G6 A_B A2F2 C2F2 | G6 F2 F8 :|
E6 C2 G6 EG | A6 E2 E6 E2| C6 DE D8 | E6 FG D8| !
 E6 C2 G6 EG | A6 E2 E6 E2| C6 DE D6 C2 | C8  :||

